packages/core/src/svgs/fet.svg

<svg width="24" height="24" viewBox="0 0 24 24" fill="none" xmlns="http://www.w3.org/2000/svg">
<g clip-path="url(#clip0_31_10294)">
<path d="M0 0H24V24H0V0Z" fill="url(#paint0_linear_31_10294)"/>
<path d="M5.14307 5.14307H6.85735V6.85735H5.14307V5.14307ZM9.42878 5.14307H11.1431V6.85735H9.42878V5.14307ZM9.42878 9.42878H11.1431V11.1431H9.42878V9.42878ZM13.7145 5.14307H15.4288V6.85735H13.7145V5.14307ZM18.0002 5.57164H18.8574V6.42878H18.0002V5.57164ZM18.0002 9.85735H18.8574V10.7145H18.0002V9.85735ZM14.1431 9.85735H15.0002V10.7145H14.1431V9.85735ZM14.1431 14.1431H15.0002V15.0002H14.1431V14.1431ZM9.85735 14.1431H10.7145V15.0002H9.85735V14.1431ZM5.57164 18.0002H6.42878V18.8574H5.57164V18.0002ZM9.85735 18.0002H10.7145V18.8574H9.85735V18.0002ZM14.1431 18.0002H15.0002V18.8574H14.1431V18.0002ZM18.0002 18.0002H18.8574V18.8574H18.0002V18.0002ZM18.0002 14.1431H18.8574V15.0002H18.0002V14.1431ZM5.14307 9.42878H6.85735V11.1431H5.14307V9.42878ZM5.14307 13.7145H6.85735V15.4288H5.14307V13.7145Z" fill="white"/>
</g>
<defs>
<linearGradient id="paint0_linear_31_10294" x1="4.46571" y1="4.16143" x2="29.2071" y2="32.58" gradientUnits="userSpaceOnUse">
<stop stop-color="#1A1E21"/>
<stop offset="1" stop-color="#06060A"/>
</linearGradient>
<clipPath id="clip0_31_10294">
<rect width="24" height="24" fill="white"/>
</clipPath>
</defs>
</svg>

<svg xmlns="http://www.w3.org/2000/svg" width="24" height="24" fill="none" viewBox="0 0 24 24"><g clip-path="url(#a)"><path fill="url(#b)" d="M0 0h24v24H0z"/><path fill="#fff" d="M5.143 5.143h1.714v1.714H5.143zm4.286 0h1.714v1.714H9.43zm0 4.286h1.714v1.714H9.43zm4.285-4.286h1.715v1.714h-1.715zM18 5.572h.857v.857H18zm0 4.285h.857v.857H18zm-3.857 0H15v.857h-.857zm0 4.286H15V15h-.857zm-4.286 0h.857V15h-.857zM5.572 18h.857v.857h-.857zm4.285 0h.857v.857h-.857zm4.286 0H15v.857h-.857zM18 18h.857v.857H18zm0-3.857h.857V15H18zM5.143 9.43h1.714v1.714H5.143zm0 4.285h1.714v1.715H5.143z"/></g><defs><linearGradient id="b" x1="4.466" x2="29.207" y1="4.161" y2="32.58" gradientUnits="userSpaceOnUse"><stop stop-color="#1A1E21"/><stop offset="1" stop-color="#06060A"/></linearGradient><clipPath id="a"><path fill="#fff" d="M0 0h24v24H0z"/></clipPath></defs></svg>
